apps/16/xbmc.svg

<?xml version="1.0" encoding="UTF-8" standalone="no"?>
<svg
   xmlns:dc="http://purl.org/dc/elements/1.1/"
   xmlns:cc="http://creativecommons.org/ns#"
   xmlns:rdf="http://www.w3.org/1999/02/22-rdf-syntax-ns#"
   xmlns:svg="http://www.w3.org/2000/svg"
   xmlns="http://www.w3.org/2000/svg"
   xmlns:sodipodi="http://sodipodi.sourceforge.net/DTD/sodipodi-0.dtd"
   xmlns:inkscape="http://www.inkscape.org/namespaces/inkscape"
   height="16"
   width="16"
   version="1.1"
   id="svg6"
   sodipodi:docname="xbmc-symbolic.svg"
   inkscape:version="0.92.3 (2405546, 2018-03-11)">
  <metadata
     id="metadata12">
    <rdf:RDF>
      <cc:Work
         rdf:about="">
        <dc:format>image/svg+xml</dc:format>
        <dc:type
           rdf:resource="http://purl.org/dc/dcmitype/StillImage" />
      </cc:Work>
    </rdf:RDF>
  </metadata>
  <defs
     id="defs10" />
  <sodipodi:namedview
     pagecolor="#808080"
     bordercolor="#808080666"
     borderopacity="1"
     objecttolerance="10"
     gridtolerance="10"
     guidetolerance="10"
     inkscape:pageopacity="0"
     inkscape:pageshadow="2"
     inkscape:window-width="1341"
     inkscape:window-height="793"
     id="namedview8"
     showgrid="false"
     inkscape:zoom="14.75"
     inkscape:cx="8"
     inkscape:cy="8"
     inkscape:window-x="0"
     inkscape:window-y="34"
     inkscape:window-maximized="0"
     inkscape:current-layer="g4" />
  <g
     color="#808080"
     transform="translate(-892 -464)"
     id="g4">
    <path
       d="M893.75 464a.748.748 0 0 0-.75.75v13.5c0 .415.335.75.75.75h5.28a1.9 1.9 0 0 1 .365-1H896.5a.499.499 0 0 1-.5-.5v-5c0-.277.223-.5.5-.5h4.674a1.518 1.518 0 0 1 1.015-.852l.541-.148h-6.23a.499.499 0 0 1-.5-.5v-5c0-.277.223-.5.5-.5h7c.277 0 .5.223.5.5v5c0 .057-.014.11-.031.16l2.31-.635-.008.004c.203-.057.424-.071.637-.03a1 1 0 0 1 .092.022v-5.271a.748.748 0 0 0-.75-.75zm.25 1h1v1h-1zm11 0h1v1h-1zm-11 2h1v1h-1zm11 0h1v1h-1zm-11 2h1v1h-1zm11 0h1v1h-1zm1.723 1.98a.385.385 0 0 0-.178.01l-4.09 1.124c-.252.069-.455.348-.455.625V478a.988 1.508 82.262 0 0-.87.04.988 1.508 82.262 0 0-1.083 1.29.988 1.508 82.262 0 0 1.822.58.988 1.508 82.262 0 0 1.13-1.086H903v-5.015l3-.823V477a.988 1.508 82.262 0 0-.87.04.988 1.508 82.262 0 0-1.083 1.29.988 1.508 82.262 0 0 1.822.58.988 1.508 82.262 0 0 1.129-1.053H907v-6.492c0-.207-.114-.354-.277-.384zM894 471h1v1h-1zm0 2h1v1h-1zm0 2h1v1h-1zm0 2h1v1h-1z"
       fill="#808080"
       overflow="visible"
       style="marker:none;fill:#808080;fill-opacity:1"
       id="path2" />
  </g>
</svg>

<svg xmlns="http://www.w3.org/2000/svg" width="16" height="16" version="1.1">
 <g transform="translate(-892,-464)">
  <path style="fill:#808080" d="M 893.75,464 A 0.748,0.748 0 0 0 893,464.75 V 478.25 C 893,478.67 893.34,479 893.75,479 H 899.03 A 1.9,1.9 0 0 1 899.39,478 H 896.5 A 0.499,0.499 0 0 1 896,477.5 V 472.5 C 896,472.22 896.22,472 896.5,472 H 901.17 A 1.518,1.518 0 0 1 902.19,471.15 L 902.73,471 H 896.5 A 0.499,0.499 0 0 1 896,470.5 V 465.5 C 896,465.22 896.22,465 896.5,465 H 903.5 C 903.78,465 904,465.22 904,465.5 V 470.5 C 904,470.56 903.99,470.61 903.97,470.66 L 906.28,470.03 H 906.27 C 906.47,469.97 906.69,469.96 906.91,470 A 1,1 0 0 1 907,470.02 V 464.75 A 0.748,0.748 0 0 0 906.25,464 Z M 894,465 H 895 V 466 H 894 Z M 905,465 H 906 V 466 H 905 Z M 894,467 H 895 V 468 H 894 Z M 905,467 H 906 V 468 H 905 Z M 894,469 H 895 V 470 H 894 Z M 905,469 H 906 V 470 H 905 Z M 906.72,470.98 A 0.385,0.385 0 0 0 906.54,470.99 L 902.45,472.11 C 902.2,472.18 902,472.46 902,472.74 V 478 A 0.988,1.508 82.262 0 0 901.13,478.04 0.988,1.508 82.262 0 0 900.05,479.33 0.988,1.508 82.262 0 0 901.87,479.91 0.988,1.508 82.262 0 0 903,478.82 V 478.82 473.81 L 906,472.99 V 477 A 0.988,1.508 82.262 0 0 905.13,477.04 0.988,1.508 82.262 0 0 904.05,478.33 0.988,1.508 82.262 0 0 905.87,478.91 0.988,1.508 82.262 0 0 907,477.86 V 477.86 471.37 C 907,471.16 906.89,471.01 906.72,470.98 Z M 894,471 H 895 V 472 H 894 Z M 894,473 H 895 V 474 H 894 Z M 894,475 H 895 V 476 H 894 Z M 894,477 H 895 V 478 H 894 Z"/>
 </g>
</svg>
